assets/images/icons/src/level-down.svg

<?xml version="1.0" encoding="utf-8"?>
<!-- Generated by IcoMoon.io -->
<!DOCTYPE svg PUBLIC "-//W3C//DTD SVG 1.1//EN" "http://www.w3.org/Graphics/SVG/1.1/DTD/svg11.dtd">
<svg version="1.1" xmlns="http://www.w3.org/2000/svg" xmlns:xlink="http://www.w3.org/1999/xlink" width="8" height="14" viewBox="0 0 8 14">
<path fill="#444444" d="M0.25 2h5.5q0.102 0 0.176 0.074t0.074 0.184v6.742h1.5q0.312 0 0.453 0.289t-0.070 0.539l-2.5 3q-0.141 0.172-0.383 0.172t-0.383-0.172l-2.5-3q-0.203-0.242-0.070-0.539 0.141-0.289 0.453-0.289h1.5v-5h-2.5q-0.109 0-0.195-0.086l-1.25-1.5q-0.102-0.109-0.031-0.266 0.070-0.148 0.227-0.148z"></path>
</svg>

<svg xmlns="http://www.w3.org/2000/svg" width="8" height="14" viewBox="0 0 8 14"><path fill="#444" d="M.25 2h5.5q.102 0 .176.074T6 2.258V9h1.5q.312 0 .453.289t-.07.539l-2.5 3Q5.242 13 5 13t-.383-.172l-2.5-3q-.203-.242-.07-.539Q2.188 9 2.5 9H4V4H1.5q-.109 0-.195-.086l-1.25-1.5q-.102-.109-.031-.266Q.094 2 .251 2z"/></svg>
